X:2331
T:Butcher Row
B: Walsh
M:6/8
L:1/8
N:
K:G
g| f>ga a2 g| f>ga gdB:: f>ga e>fg| f>ga gdB:: f2e f/2e/2f/2g/2a|gec fdB::\
e>fe cAd| cdc fdB:: ABA cAd| cec fdB:: cAd cAd| cac BdB::
a2 e f/2e/2f/2g/2 a|g/2f/2e/2d/2c f/2e/2d/2c/2B ::\
e>fe f/2e/2f/2g/2a |g/2f/2e/2d/2c f/2e/2d/2c/2B ::\
aec aec| aec BGB:: c>B/2c/2 c>B/2c/2|c>B/2c/2 BGB:: ceA dfA| ceA fdB::\
cac dbd| cac BGB::A>BA cAd| cec fdB:: ~e3 ~g3| aec fdB:: e>fe f>ga| gec fdB::\
e3 c3| cec fdB|A3 c3| c3 BGB:: cAd cAd| cec fdB:: e3 g3 |a2 c B2 g::\
a2 c a2 c| a2 c B2 g::a3 e3|cdc fdB:: A/2A/2A/2A/2e A/2A/2A/2A/2f |\
A/2A/2A/2A/2e BGB| A/2A/2A/2A/2e A/2A/2A/2A/2g| A/2A/2A/2A/2e BGB::\
A/2A/2A/2A/2A cAc | A/2A/2A/2A/2A BGB :: e/2e/2e/2e/2e cAc|e/2e/2e/2e/2e BGB::\
a/2a/2a/2a/2a cAc |a/2a/2a/2a/2a BGB:: A/2A/2A/2A/2A A/2A/2A/2A/2A|\
A/2A/2A/2A/2A BGB::A3 d3 |c3 BGB:: cAd cAd| cAd BGB::aec aec|aec fdB:|


